optimized/24/outline/dollar.svg

<svg viewBox="0 0 24 24" fill="none" xmlns="http://www.w3.org/2000/svg">
  <g clip-path="url(#clip0_4643_8)">
    <path fill-rule="evenodd" clip-rule="evenodd" d="M12.2045 2.21591C12.2045 1.82052 11.884 1.5 11.4886 1.5C11.0932 1.5 10.7727 1.82052 10.7727 2.21591V3.73763C9.65408 3.90859 8.63878 4.31661 7.83252 4.90297C6.74815 5.69161 6 6.84198 6 8.18182C6 9.52166 6.74815 10.672 7.83252 11.4607C8.63878 12.047 9.65408 12.455 10.7727 12.626L10.7727 18.8101C9.95237 18.6548 9.23245 18.3447 8.67468 17.9391C7.85892 17.3458 7.43182 16.5871 7.43182 15.8182C7.43182 15.4228 7.1113 15.1023 6.71591 15.1023C6.32052 15.1023 6 15.4228 6 15.8182C6 17.158 6.74815 18.3084 7.83252 19.097C8.63878 19.6834 9.65408 20.0914 10.7727 20.2624V21.7841C10.7727 22.1795 11.0932 22.5 11.4886 22.5C11.884 22.5 12.2045 22.1795 12.2045 21.7841V20.3487C13.6971 20.3045 15.0689 19.8464 16.0993 19.097C17.1837 18.3084 17.9318 17.158 17.9318 15.8182C17.9318 14.4783 17.1837 13.328 16.0993 12.5393C15.0689 11.79 13.6971 11.3319 12.2045 11.2876V5.08383C13.421 5.12766 14.4918 5.50429 15.2571 6.06094C16.0729 6.65421 16.5 7.41293 16.5 8.18182C16.5 8.5772 16.8205 8.89773 17.2159 8.89773C17.6113 8.89773 17.9318 8.5772 17.9318 8.18182C17.9318 6.84198 17.1837 5.69161 16.0993 4.90297C15.0689 4.1536 13.6971 3.69552 12.2045 3.65126V2.21591ZM10.7727 5.18992C9.95237 5.34524 9.23245 5.65529 8.67468 6.06094C7.85893 6.65421 7.43182 7.41293 7.43182 8.18182C7.43182 8.9507 7.85893 9.70942 8.67468 10.3027C9.23245 10.7083 9.95237 11.0184 10.7727 11.1737V5.18992ZM12.2045 12.7202L12.2045 18.9162C13.421 18.8723 14.4918 18.4957 15.2571 17.9391C16.0729 17.3458 16.5 16.5871 16.5 15.8182C16.5 15.0493 16.0729 14.2906 15.2571 13.6973C14.4918 13.1407 13.421 12.764 12.2045 12.7202Z" fill="#333333"/>
  </g>
  <defs>
    <clipPath id="clip0_4643_8">
      <rect width="24" height="24" fill="white"/>
    </clipPath>
  </defs>
</svg>

<svg xmlns="http://www.w3.org/2000/svg" width="24" height="24" fill="none">
  <g clip-path="url(#a)">
    <path fill="#333" fill-rule="evenodd" d="M12.204 2.216a.716.716 0 1 0-1.431 0v1.522c-1.119.17-2.134.579-2.94 1.165C6.748 5.692 6 6.842 6 8.182c0 1.34.748 2.49 1.833 3.279.806.586 1.821.994 2.94 1.165v6.184c-.82-.155-1.54-.465-2.098-.87-.816-.594-1.243-1.353-1.243-2.122a.716.716 0 1 0-1.432 0c0 1.34.748 2.49 1.833 3.279.806.586 1.821.994 2.94 1.165v1.522a.716.716 0 1 0 1.431 0V20.35c1.493-.044 2.865-.503 3.895-1.252 1.085-.789 1.833-1.939 1.833-3.279 0-1.34-.748-2.49-1.833-3.279-1.03-.749-2.402-1.207-3.895-1.251V5.084c1.217.044 2.288.42 3.053.977.816.593 1.243 1.352 1.243 2.12a.716.716 0 1 0 1.432 0c0-1.339-.748-2.49-1.833-3.278-1.03-.75-2.402-1.207-3.895-1.252V2.216ZM10.773 5.19c-.82.155-1.54.465-2.098.87-.816.594-1.243 1.353-1.243 2.122 0 .769.427 1.527 1.243 2.12.557.406 1.277.716 2.098.872V5.19Zm1.431 7.53v6.196c1.217-.044 2.288-.42 3.053-.977.816-.593 1.243-1.352 1.243-2.12 0-.77-.427-1.528-1.243-2.122-.765-.556-1.836-.933-3.053-.977Z" clip-rule="evenodd"/>
  </g>
  <defs>
    <clipPath id="a">
      <path fill="#fff" d="M0 0h24v24H0z"/>
    </clipPath>
  </defs>
</svg>
